X:72
T:Shelburne Rotary Breakdown
S:Bernie Waugh
R:Reel
M:4/4
L:1/8
K:D
|:~FE|\
"D"DFAF BFAF|DFAF dAAD|"C"=C2 =cE EdED|=CDE=F GECE|
"D"DFAF BFAF|DFAF d2 A2|"G"Bcde "D"fgaf|"A"edBc "D"d2:|
|:(3ABc|\
"D"d2 fd "G"dbz f|"D"{g}fedf "A"edBc|\
"Bm"dcBd "F#m"(3cBA FB|"G"AFDF "A"E2 (3ABc|
"D"d2 fd "G"dbz f|"D"{g}fedf "A"edBc|\
"Bm"dcBd "F#m"(3cBA FB|"A"AFEF "D"D2:|

